X: 12066
T: Essex Bazurka, The
R: mazurka
M: 3/4
K: Gmajor
|:D2 ^CD EF|GA Bc ^cd|ed c2 A2|ed B2 G2|
(3DED ^CD EF|GA Bc ^cd|ed cd Fd|G2 G4:|
|:g2 ag fe|d2 Be dB|d^c =cA FA|G2 Bc ^cd|
(3gfg ag fe|(3ded Be dB|d^c =cd Fd|G2 G4:|

